apps/scalable/google-hangouts.svg

<svg height="48" width="48" xmlns="http://www.w3.org/2000/svg" xmlns:xlink="http://www.w3.org/1999/xlink"><linearGradient id="a" gradientUnits="userSpaceOnUse" x1="409.044739960223" x2="408.667926869747" y1="547.0927411431" y2="500.7982491579"><stop offset="0" stop-color="#cdddf3"/><stop offset="1" stop-color="#fbfdf8"/></linearGradient><linearGradient id="b" gradientTransform="matrix(.25303413 0 0 -.25303413 388.93143 547.17704)" gradientUnits="userSpaceOnUse" x1="72.591591" x2="76.367653" y1="4.607297" y2="183.86407"><stop offset="0" stop-color="#109d59"/><stop offset="1" stop-color="#30aa6f"/></linearGradient><g transform="translate(-384.57143 -499.798)"><path d="m407.48845 500.61194c-.0218.051-.0627.049-.10248.047-.0121-.0008-.0245 0-.0359-.0005-.67965.061-1.35702.1374-2.02782.2647-4.90557.9296-8.93387 3.338-12.05227 7.2289-2.56475 3.1996-3.97719 6.8701-4.28235 10.9627-.0367.4927-.0554.9843-.0562 1.4747v.064c.002 1.4615.16447 2.9122.48633 4.3481.32313 1.4423.80516 2.8355 1.45343 4.1675.0569.1136.11336.2272.17105.3401 1.06502 2.0971 2.43495 3.9661 4.15204 5.5802.90409.8496 1.86967 1.6181 2.91596 2.2823 3.20443 2.0339 6.70237 3.1005 10.50244 3.1483.23279 0 .2963.061.29529.2988-.0106 2.0339-.006 4.0683-.006 6.1022.00025.079.007.1576.0106.2558.0658-.027.10703-.042.14676-.061 3.82005-1.7948 7.32787-4.0627 10.45512-6.9056.62195-.5658 1.21734-1.1581 1.79021-1.775.24519-.2642.48811-.5329.73405-.7961.37956-.4061.70799-.8598 1.06578-1.2866.41321-.493.78416-1.017 1.15005-1.5443.8092-1.1655 1.53136-2.3813 2.13864-3.6657.30718-.6496.59969-1.3039.85854-1.9734.009-.013.0202-.024.0256-.038.70546-1.8342 1.15738-3.732 1.39852-5.6791.084-.6781.13841-1.3608.17257-2.0427.0154-.3082.0233-.6159.0238-.9231v-.067c-.002-1.1341-.10501-2.2627-.31022-3.3823-.70672-3.853-2.39395-7.2189-5.05941-10.0908-1.12499-1.2125-2.3851-2.2662-3.77654-3.1606-2.59132-1.666-5.41468-2.6868-8.47614-3.0483-.37322-.044-.75176-.039-1.11967-.1263h-2.64193z" fill="url(#b)"/><path d="m14.640625 14.386719c-.22976 0-.420853.090201-.595703.238281-.32211.2735-.355666.631072-.322266 1.013672-.001 2.396-.006906 4.7917-.003906 7.1875.0003.24387.107774.471055.277344.640625l2.876953 2.876953c-.030494.024229-.062421.046187-.089844.076172-.17711.1953-.088902.431144-.101562.652344l-.001953 2.253906c.038.0919.086314.170259.146484.230469l14.070312 14.070312c1.408663-.981003 2.761967-2.046768 4.046875-3.214844.62195-.5658 1.216193-1.15849 1.789063-1.77539.24519-.2642.488435-.531722.734375-.794922.37956-.4061.708616-.860309 1.066406-1.287109.41321-.493001.784501-1.017622 1.150391-1.544922.8092-1.1655 1.531392-2.381616 2.138672-3.666016.30718-.6496.598572-1.303156.857422-1.972656.009-.013.01999-.02311.02539-.03711.656307-1.7064 1.08408-3.470412 1.335938-5.27539l-9.38086-9.38086c-.1779-.17789-.421727-.291445-.685547-.291015h-4.03125c-.97039 0-1.941979-.0006-2.912109 0-.17611 0-.341051.040697-.494141.136719-.39319.246399-.520709.607981-.474609 1.050781.002.023.003906.045359.003906.068359-.000783.927031-.002996 1.85408-.003906 2.78125l-3.746094-3.746094c-.17785-.17785-.421547-.291445-.685547-.291015-.98481-.0003-1.970278 0-2.955078 0-.53846 0-1.076774.0003-1.615234 0z" fill-opacity=".078431" transform="translate(384.57143 499.798)"/><path d="m399.21206 514.18472c-.22976 0-.42086.0902-.59571.23828-.32211.2735-.35566.63107-.32226 1.01367-.001 2.396-.007 4.7917-.004 7.1875.00051.4162.311.78604.71484.89844.1331.032.26716.0407.4043.041 1.58425 0 3.1694.01 4.7539.01-.0273.1172-.0534.23496-.082.35156-.18193.7412-.59374 1.30943-1.2539 1.70313-.35855.2138-.75692.29357-1.15039.39257-.13436.0341-.23447.10127-.32227.19727-.17711.1953-.0889.43114-.10156.65234l-.002 2.25391c.10096.2442.27663.39447.54687.35547.34944-.0514.69816-.10427 1.04102-.19727.80592-.2184 1.51764-.61564 2.17578-1.11914.065-.0628.12931-.12745.19531-.18945 1.26795-1.1816 1.94218-2.63879 1.95508-4.37109.0199-2.61051.006-5.22124.006-7.83204 0-.1202.009-.24262-.0391-.35742.19736-.6081-.31305-1.22951-.92969-1.22851-.98481-.0003-1.97028 0-2.95508 0-.53846 0-1.07677.0003-1.61523 0h-2.41992zm12.39062 0c-.17611 0-.34105.0407-.49414.13672-.39319.2464-.52071.60798-.47461 1.05078.002.023.004.0454.004.0684-.002 2.3664-.005 4.73371-.006 7.09961-.00025.6009.40793 1.01344 1.00586 1.02344.10602.0005.21234.0002.31836 0 .0531-.0003.10726 0 .16015 0 1.4638 0 2.92708.01 4.39063.01-.11614.664-.37209 1.25175-.87891 1.72265-.42206.3922-.93406.56515-1.47656.68946-.42738.0979-.56004.24379-.56055.58789 0 .0984.004.19592.006.29492-.004.4479-.008.8978-.0117 1.3457.002.2505.003.4997.006.75.004.3567.27195.55786.62696.50586.46507-.0683.92018-.17523 1.37109-.30273.017-.01.0341-.0193.0508-.0293.0298-.008.0604-.0134.0898-.0234.0529-.027.10526-.0571.16016-.0801 2.15813-.8976 3.62104-3.08343 3.62304-5.41993.002-2.6154.002-5.2306.002-7.8457 0-.1202.008-.24067-.0391-.35547.19737-.6081-.31355-1.22951-.92968-1.22851h-4.03125c-.97039 0-1.94198-.0006-2.91211 0z" fill="url(#a)"/></g></svg>

<?xml version="1.0" encoding="UTF-8" standalone="no"?>
<!-- Created with Inkscape (http://www.inkscape.org/) -->

<svg
   xmlns:dc="http://purl.org/dc/elements/1.1/"
   xmlns:cc="http://creativecommons.org/ns#"
   xmlns:rdf="http://www.w3.org/1999/02/22-rdf-syntax-ns#"
   xmlns:svg="http://www.w3.org/2000/svg"
   xmlns="http://www.w3.org/2000/svg"
   xmlns:xlink="http://www.w3.org/1999/xlink"
   xmlns:sodipodi="http://sodipodi.sourceforge.net/DTD/sodipodi-0.dtd"
   xmlns:inkscape="http://www.inkscape.org/namespaces/inkscape"
   sodipodi:docname="chrome-knipolnnllmklapflnccelgolnpehhpl.svg"
   inkscape:version="0.91 r13725"
   version="1.1"
   id="svg5453"
   height="48"
   width="48">
  <sodipodi:namedview
     showborder="true"
     showguides="false"
     borderlayer="true"
     inkscape:showpageshadow="false"
     inkscape:window-maximized="1"
     inkscape:window-y="28"
     inkscape:window-x="0"
     inkscape:window-height="712"
     inkscape:window-width="1366"
     fit-margin-bottom="0"
     fit-margin-right="0"
     fit-margin-left="0"
     fit-margin-top="0"
     showgrid="false"
     inkscape:current-layer="layer1"
     inkscape:document-units="px"
     inkscape:cy="35.528163"
     inkscape:cx="-4.5358874"
     inkscape:zoom="5.3353224"
     inkscape:pageshadow="2"
     inkscape:pageopacity="0"
     borderopacity="1.0"
     bordercolor="#666666"
     pagecolor="#5a5a5a"
     id="base">
    <inkscape:grid
       id="grid4063"
       type="xygrid" />
    <sodipodi:guide
       id="guide4146"
       orientation="4,0"
       position="1.1650391e-05,47.999996" />
    <sodipodi:guide
       id="guide4148"
       orientation="0,48"
       position="1.1650391e-05,43.999996" />
    <sodipodi:guide
       id="guide4150"
       orientation="-4,0"
       position="48.000012,43.999996" />
    <sodipodi:guide
       id="guide4152"
       orientation="0,-48"
       position="48.000012,47.999996" />
    <sodipodi:guide
       id="guide4154"
       orientation="4,0"
       position="1.1650391e-05,4.0000264" />
    <sodipodi:guide
       id="guide4156"
       orientation="0,48"
       position="1.1650391e-05,2.6367188e-05" />
    <sodipodi:guide
       id="guide4158"
       orientation="-4,0"
       position="48.000012,2.6367188e-05" />
    <sodipodi:guide
       id="guide4160"
       orientation="0,-48"
       position="48.000012,4.0000264" />
    <sodipodi:guide
       id="guide4162"
       orientation="0,-4"
       position="48.000012,48.000026" />
    <sodipodi:guide
       id="guide4164"
       orientation="48,0"
       position="44.000012,48.000026" />
    <sodipodi:guide
       id="guide4166"
       orientation="0,4"
       position="44.000012,2.6367188e-05" />
    <sodipodi:guide
       id="guide4168"
       orientation="-48,0"
       position="48.000012,2.6367188e-05" />
    <sodipodi:guide
       id="guide4170"
       orientation="0,-4"
       position="4.0000422,48.000026" />
    <sodipodi:guide
       id="guide4172"
       orientation="48,0"
       position="4.2167969e-05,48.000026" />
    <sodipodi:guide
       id="guide4174"
       orientation="0,4"
       position="4.2167969e-05,2.6367188e-05" />
    <sodipodi:guide
       id="guide4176"
       orientation="-48,0"
       position="4.0000422,2.6367188e-05" />
    <sodipodi:guide
       id="guide4153"
       orientation="39.999969,0"
       position="20,30" />
    <sodipodi:guide
       id="guide4155"
       orientation="0,8"
       position="20.000012,4.0000264" />
    <sodipodi:guide
       id="guide4157"
       orientation="-39.999969,0"
       position="25,30" />
    <sodipodi:guide
       id="guide4159"
       orientation="0,-8"
       position="28.000012,43.999996" />
    <sodipodi:guide
       id="guide4338"
       orientation="-2.5,4"
       position="22,6" />
    <sodipodi:guide
       id="guide4342"
       orientation="5,0"
       position="22,11" />
  </sodipodi:namedview>
  <defs
     id="defs5455">
    <linearGradient
       inkscape:collect="always"
       id="linearGradient4191">
      <stop
         style="stop-color:#109d59;stop-opacity:1"
         offset="0"
         id="stop4193" />
      <stop
         style="stop-color:#30aa6f;stop-opacity:1"
         offset="1"
         id="stop4195" />
    </linearGradient>
    <linearGradient
       id="linearGradient3819">
      <stop
         style="stop-color:#cdddf3;stop-opacity:1"
         offset="0"
         id="stop3821" />
      <stop
         style="stop-color:#fbfdf8;stop-opacity:1"
         offset="1"
         id="stop3823" />
    </linearGradient>
    <linearGradient
       id="linearGradient8311-06">
      <stop
         offset="0"
         style="stop-color:#a9a3d4;stop-opacity:1"
         id="stop8313-6" />
      <stop
         id="stop4462"
         style="stop-color:#87baff;stop-opacity:1"
         offset="0.47001833" />
      <stop
         offset="1"
         style="stop-color:#89ec85;stop-opacity:1"
         id="stop8315-2" />
    </linearGradient>
    <clipPath
       id="clipPath16"
       clipPathUnits="userSpaceOnUse">
      <path
         inkscape:connector-curvature="0"
         id="path18"
         d="m 73.338,184.027 c -0.086,-0.2 -0.248,-0.192 -0.405,-0.185 l 0,0 c -0.048,0.003 -0.097,0.006 -0.142,0.002 l 0,0 c -2.686,-0.239 -5.363,-0.543 -8.014,-1.046 l 0,0 C 45.39,179.124 29.47,169.606 17.146,154.229 l 0,0 C 7.01,141.584 1.428,127.078 0.222,110.904 l 0,0 C 0.077,108.957 0.003,107.014 0,105.076 l 0,0 0,-0.255 C 0.009,99.045 0.65,93.312 1.922,87.637 l 0,0 c 1.277,-5.7 3.182,-11.206 5.744,-16.47 l 0,0 c 0.225,-0.449 0.448,-0.898 0.676,-1.344 l 0,0 C 12.551,61.535 17.965,54.149 24.751,47.77 l 0,0 c 3.573,-3.358 7.389,-6.395 11.524,-9.02 l 0,0 C 48.939,30.712 62.763,26.497 77.781,26.308 l 0,0 c 0.92,-0.012 1.171,-0.24 1.167,-1.181 l 0,0 C 78.906,17.089 78.923,9.049 78.925,1.011 l 0,0 C 78.926,0.699 78.951,0.388 78.967,0 l 0,0 c 0.26,0.106 0.423,0.166 0.58,0.24 l 0,0 c 15.097,7.093 28.96,16.056 41.319,27.291 l 0,0 c 2.458,2.236 4.811,4.577 7.075,7.015 l 0,0 c 0.969,1.044 1.929,2.106 2.901,3.146 l 0,0 c 1.5,1.605 2.798,3.398 4.212,5.085 l 0,0 c 1.633,1.948 3.099,4.019 4.545,6.103 l 0,0 c 3.198,4.606 6.052,9.411 8.452,14.487 l 0,0 c 1.214,2.567 2.37,5.153 3.393,7.799 l 0,0 c 0.034,0.05 0.08,0.094 0.101,0.148 l 0,0 c 2.788,7.249 4.574,14.749 5.527,22.444 l 0,0 c 0.332,2.68 0.547,5.378 0.682,8.073 l 0,0 c 0.061,1.218 0.092,2.434 0.094,3.648 l 0,0 0,0.265 c -0.008,4.482 -0.415,8.942 -1.226,13.367 l 0,0 c -2.793,15.227 -9.461,28.529 -19.995,39.879 l 0,0 c -4.446,4.792 -9.426,8.956 -14.925,12.491 l 0,0 c -10.241,6.584 -21.399,10.618 -33.498,12.047 l 0,0 c -1.475,0.175 -2.971,0.153 -4.425,0.499 l 0,0 -10.441,0 z m 43.699,-53.638 c 2.435,0.004 4.453,-2.453 3.673,-4.856 l 0,0 c 0.185,-0.454 0.153,-0.932 0.153,-1.407 l 0,0 c 0,-10.335 0.004,-20.67 -0.003,-31.006 l 0,0 C 120.852,83.886 115.066,75.247 106.537,71.7 l 0,0 c -0.217,-0.09 -0.422,-0.208 -0.631,-0.315 l 0,0 c 0.146,-0.182 0.321,-0.237 0.505,-0.246 l 0,0 c 0.006,0 0.012,0 0.018,0 l 0,0 c -0.006,0 -0.012,0 -0.018,0 l 0,0 c -0.184,0.009 -0.36,0.064 -0.506,0.246 l 0,0 c -0.116,-0.031 -0.233,-0.065 -0.351,-0.097 l 0,0 c -0.066,-0.038 -0.132,-0.076 -0.199,-0.113 l 0,0 c -1.782,-0.504 -3.58,-0.922 -5.418,-1.192 l 0,0 c -1.403,-0.206 -2.462,0.586 -2.479,1.996 l 0,0 c -0.012,0.989 -0.02,1.978 -0.028,2.968 l 0,0 c 0.016,1.77 0.034,3.541 0.05,5.311 l 0,0 c -0.008,0.39 -0.024,0.78 -0.023,1.169 l 0,0 c 0.002,1.36 0.527,1.933 2.216,2.32 l 0,0 c 2.144,0.491 4.162,1.182 5.83,2.732 l 0,0 c 2.003,1.861 3.015,4.182 3.474,6.806 l 0,0 c -5.784,0.012 -11.567,0.022 -17.352,0.033 l 0,0 c -0.209,0 -0.42,-0.001 -0.63,-0.002 l 0,0 c -0.419,-0.001 -0.838,-0.002 -1.257,0.005 l 0,0 c -2.363,0.04 -3.98,1.672 -3.979,4.047 l 0,0 c 0.003,9.35 0.016,18.701 0.024,28.053 l 0,0 c 0,0.089 -0.01,0.179 -0.016,0.268 l 0,0 c -0.182,1.75 0.322,3.184 1.876,4.158 l 0,0 c 0.605,0.378 1.261,0.536 1.957,0.536 l 0,0 c 3.834,0.002 7.669,10e-4 11.504,10e-4 l 0,0 c 5.311,0 10.622,0 15.933,0.005 m -48.782,0 c 2.437,0.004 4.454,-2.453 3.674,-4.856 l 0,0 c 0.189,-0.454 0.154,-0.933 0.154,-1.408 l 0,0 c 0.002,-10.318 0.059,-20.638 -0.018,-30.955 l 0,0 C 72.014,86.324 69.348,80.564 64.337,75.894 l 0,0 C 64.076,75.651 63.823,75.398 63.566,75.15 l 0,0 c -2.601,-1.99 -5.412,-3.56 -8.597,-4.423 l 0,0 c -1.355,-0.368 -2.737,-0.578 -4.118,-0.781 l 0,0 c -1.068,-0.156 -1.763,0.437 -2.162,1.402 l 0,0 c 0.004,2.97 0.006,5.938 0.011,8.908 l 0,0 c 0.05,0.874 -0.3,1.81 0.4,2.582 l 0,0 c 0.347,0.381 0.74,0.642 1.271,0.777 l 0,0 c 1.555,0.391 3.131,0.704 4.548,1.549 l 0,0 c 2.609,1.556 4.232,3.804 4.951,6.733 l 0,0 c 0.113,0.461 0.219,0.925 0.327,1.388 l 0,0 c -6.262,0.012 -12.524,0.023 -18.785,0.031 l 0,0 c -0.542,10e-4 -1.077,0.02 -1.603,0.166 l 0,0 c -1.596,0.444 -2.818,1.9 -2.82,3.545 l 0,0 c -0.012,9.468 0.006,18.937 0.013,28.406 l 0,0 c -0.132,1.512 10e-4,2.93 1.274,4.011 l 0,0 c 0.691,0.585 1.45,0.941 2.358,0.941 l 0,0 c 3.187,0 6.374,0 9.561,0 l 0,0 c 2.128,-0.001 4.257,-0.001 6.385,-0.001 l 0,0 c 3.892,0 7.783,0.001 11.675,0.005" />
    </clipPath>
    <linearGradient
       gradientTransform="matrix(1.138587,0,0,1.138587,312.66605,-651.3171)"
       gradientUnits="userSpaceOnUse"
       y2="1011.8817"
       x2="84.316681"
       y1="1052.5413"
       x1="84.647629"
       id="linearGradient4378"
       xlink:href="#linearGradient3819"
       inkscape:collect="always" />
    <linearGradient
       gradientTransform="matrix(0.25303413,0,0,-0.25303413,388.93143,547.17704)"
       y2="183.86407"
       x2="76.367653"
       y1="4.6072965"
       x1="72.591591"
       gradientUnits="userSpaceOnUse"
       id="linearGradient4292"
       xlink:href="#linearGradient4191"
       inkscape:collect="always" />
  </defs>
  <metadata
     id="metadata5458">
    <rdf:RDF>
      <cc:Work
         rdf:about="">
        <dc:format>image/svg+xml</dc:format>
        <dc:type
           rdf:resource="http://purl.org/dc/dcmitype/StillImage" />
        <dc:title />
      </cc:Work>
    </rdf:RDF>
  </metadata>
  <g
     transform="translate(-384.57143,-499.798)"
     id="layer1"
     inkscape:groupmode="layer"
     inkscape:label="Layer 1">
    <path
       sodipodi:nodetypes="ccccccccccccccccccccccccccccccccccccccccccccccccccccccccccccccccccccc"
       inkscape:connector-curvature="0"
       id="path32"
       style="fill:url(#linearGradient4292);fill-opacity:1;stroke:none;stroke-width:1.31742239;stroke-miterlimit:4;stroke-dasharray:none"
       d="m 407.48845,500.61194 c -0.0218,0.051 -0.0627,0.049 -0.10248,0.047 l 0,0 c -0.0121,-8e-4 -0.0245,0 -0.0359,-5e-4 l 0,0 c -0.67965,0.061 -1.35702,0.1374 -2.02782,0.2647 l 0,0 c -4.90557,0.9296 -8.93387,3.338 -12.05227,7.2289 l 0,0 c -2.56475,3.1996 -3.97719,6.8701 -4.28235,10.9627 l 0,0 c -0.0367,0.4927 -0.0554,0.9843 -0.0562,1.4747 l 0,0 0,0.064 c 0.002,1.4615 0.16447,2.9122 0.48633,4.3481 l 0,0 c 0.32313,1.4423 0.80516,2.8355 1.45343,4.1675 l 0,0 c 0.0569,0.1136 0.11336,0.2272 0.17105,0.3401 l 0,0 c 1.06502,2.0971 2.43495,3.9661 4.15204,5.5802 l 0,0 c 0.90409,0.8496 1.86967,1.6181 2.91596,2.2823 l 0,0 c 3.20443,2.0339 6.70237,3.1005 10.50244,3.1483 l 0,0 c 0.23279,0 0.2963,0.061 0.29529,0.2988 l 0,0 c -0.0106,2.0339 -0.006,4.0683 -0.006,6.1022 l 0,0 c 2.5e-4,0.079 0.007,0.1576 0.0106,0.2558 l 0,0 c 0.0658,-0.027 0.10703,-0.042 0.14676,-0.061 l 0,0 c 3.82005,-1.7948 7.32787,-4.0627 10.45512,-6.9056 l 0,0 c 0.62195,-0.5658 1.21734,-1.1581 1.79021,-1.775 l 0,0 c 0.24519,-0.2642 0.48811,-0.5329 0.73405,-0.7961 l 0,0 c 0.37956,-0.4061 0.70799,-0.8598 1.06578,-1.2866 l 0,0 c 0.41321,-0.493 0.78416,-1.017 1.15005,-1.5443 l 0,0 c 0.8092,-1.1655 1.53136,-2.3813 2.13864,-3.6657 l 0,0 c 0.30718,-0.6496 0.59969,-1.3039 0.85854,-1.9734 l 0,0 c 0.009,-0.013 0.0202,-0.024 0.0256,-0.038 l 0,0 c 0.70546,-1.8342 1.15738,-3.732 1.39852,-5.6791 l 0,0 c 0.084,-0.6781 0.13841,-1.3608 0.17257,-2.0427 l 0,0 c 0.0154,-0.3082 0.0233,-0.6159 0.0238,-0.9231 l 0,0 0,-0.067 c -0.002,-1.1341 -0.10501,-2.2627 -0.31022,-3.3823 l 0,0 c -0.70672,-3.853 -2.39395,-7.2189 -5.05941,-10.0908 l 0,0 c -1.12499,-1.2125 -2.3851,-2.2662 -3.77654,-3.1606 l 0,0 c -2.59132,-1.666 -5.41468,-2.6868 -8.47614,-3.0483 l 0,0 c -0.37322,-0.044 -0.75176,-0.039 -1.11967,-0.1263 l 0,0 -2.64193,0 z" />
    <path
       style="fill:#000000;fill-opacity:0.07843137;stroke:none;stroke-width:0.1;stroke-linecap:round;stroke-linejoin:round;stroke-miterlimit:4;stroke-dasharray:none;stroke-dashoffset:0;stroke-opacity:1"
       clip-path="none"
       d="M 14.640625 14.386719 C 14.410865 14.386719 14.219772 14.47692 14.044922 14.625 C 13.722812 14.8985 13.689256 15.256072 13.722656 15.638672 C 13.721656 18.034672 13.71575 20.430372 13.71875 22.826172 C 13.71905 23.070042 13.826524 23.297227 13.996094 23.466797 L 16.873047 26.34375 C 16.842553 26.367979 16.810626 26.389937 16.783203 26.419922 C 16.606093 26.615222 16.694301 26.851066 16.681641 27.072266 L 16.679688 29.326172 C 16.717688 29.418072 16.766002 29.496431 16.826172 29.556641 L 30.896484 43.626953 C 32.305147 42.64595 33.658451 41.580185 34.943359 40.412109 C 35.565309 39.846309 36.159552 39.253619 36.732422 38.636719 C 36.977612 38.372519 37.220857 38.104997 37.466797 37.841797 C 37.846357 37.435697 38.175413 36.981488 38.533203 36.554688 C 38.946413 36.061687 39.317704 35.537066 39.683594 35.009766 C 40.492794 33.844266 41.214986 32.62815 41.822266 31.34375 C 42.129446 30.69415 42.420838 30.040594 42.679688 29.371094 C 42.688688 29.358094 42.699678 29.347984 42.705078 29.333984 C 43.361385 27.627584 43.789158 25.863572 44.041016 24.058594 L 34.660156 14.677734 C 34.482256 14.499844 34.238429 14.386289 33.974609 14.386719 L 29.943359 14.386719 C 28.972969 14.386719 28.00138 14.386119 27.03125 14.386719 C 26.85514 14.386719 26.690199 14.427416 26.537109 14.523438 C 26.143919 14.769837 26.0164 15.131419 26.0625 15.574219 C 26.0645 15.597219 26.066406 15.619578 26.066406 15.642578 C 26.065623 16.569609 26.06341 17.496658 26.0625 18.423828 L 22.316406 14.677734 C 22.138556 14.499884 21.894859 14.386289 21.630859 14.386719 C 20.646049 14.386419 19.660581 14.386719 18.675781 14.386719 C 18.137321 14.386719 17.599007 14.387019 17.060547 14.386719 L 14.640625 14.386719 z "
       transform="translate(384.57143,499.798)"
       id="path3417" />
    <path
       inkscape:connector-curvature="0"
       style="opacity:1;fill:url(#linearGradient4378);fill-opacity:1;stroke:none;stroke-width:0.1;stroke-linecap:round;stroke-linejoin:round;stroke-miterlimit:4;stroke-dasharray:none;stroke-dashoffset:0;stroke-opacity:1"
       d="m 399.21206,514.18472 c -0.22976,0 -0.42086,0.0902 -0.59571,0.23828 -0.32211,0.2735 -0.35566,0.63107 -0.32226,1.01367 -10e-4,2.396 -0.007,4.7917 -0.004,7.1875 5.1e-4,0.4162 0.311,0.78604 0.71484,0.89844 0.1331,0.032 0.26716,0.0407 0.4043,0.041 1.58425,0 3.1694,0.01 4.7539,0.01 -0.0273,0.1172 -0.0534,0.23496 -0.082,0.35156 -0.18193,0.7412 -0.59374,1.30943 -1.2539,1.70313 -0.35855,0.2138 -0.75692,0.29357 -1.15039,0.39257 -0.13436,0.0341 -0.23447,0.10127 -0.32227,0.19727 -0.17711,0.1953 -0.0889,0.43114 -0.10156,0.65234 l -0.002,2.25391 c 0.10096,0.2442 0.27663,0.39447 0.54687,0.35547 0.34944,-0.0514 0.69816,-0.10427 1.04102,-0.19727 0.80592,-0.2184 1.51764,-0.61564 2.17578,-1.11914 0.065,-0.0628 0.12931,-0.12745 0.19531,-0.18945 1.26795,-1.1816 1.94218,-2.63879 1.95508,-4.37109 0.0199,-2.61051 0.006,-5.22124 0.006,-7.83204 0,-0.1202 0.009,-0.24262 -0.0391,-0.35742 0.19736,-0.6081 -0.31305,-1.22951 -0.92969,-1.22851 -0.98481,-3e-4 -1.97028,0 -2.95508,0 -0.53846,0 -1.07677,3e-4 -1.61523,0 l -2.41992,0 z m 12.39062,0 c -0.17611,0 -0.34105,0.0407 -0.49414,0.13672 -0.39319,0.2464 -0.52071,0.60798 -0.47461,1.05078 0.002,0.023 0.004,0.0454 0.004,0.0684 -0.002,2.3664 -0.005,4.73371 -0.006,7.09961 -2.5e-4,0.6009 0.40793,1.01344 1.00586,1.02344 0.10602,5e-4 0.21234,2e-4 0.31836,0 0.0531,-3e-4 0.10726,0 0.16015,0 1.4638,0 2.92708,0.01 4.39063,0.01 -0.11614,0.664 -0.37209,1.25175 -0.87891,1.72265 -0.42206,0.3922 -0.93406,0.56515 -1.47656,0.68946 -0.42738,0.0979 -0.56004,0.24379 -0.56055,0.58789 0,0.0984 0.004,0.19592 0.006,0.29492 -0.004,0.4479 -0.008,0.8978 -0.0117,1.3457 0.002,0.2505 0.003,0.4997 0.006,0.75 0.004,0.3567 0.27195,0.55786 0.62696,0.50586 0.46507,-0.0683 0.92018,-0.17523 1.37109,-0.30273 0.017,-0.01 0.0341,-0.0193 0.0508,-0.0293 0.0298,-0.008 0.0604,-0.0134 0.0898,-0.0234 0.0529,-0.027 0.10526,-0.0571 0.16016,-0.0801 2.15813,-0.8976 3.62104,-3.08343 3.62304,-5.41993 0.002,-2.6154 0.002,-5.2306 0.002,-7.8457 0,-0.1202 0.008,-0.24067 -0.0391,-0.35547 0.19737,-0.6081 -0.31355,-1.22951 -0.92968,-1.22851 l -4.03125,0 c -0.97039,0 -1.94198,-6e-4 -2.91211,0 z"
       id="path4370" />
  </g>
</svg>
